src/ui/move-file-fill.svg

<?xml version="1.0" encoding="UTF-8"?><svg xmlns="http://www.w3.org/2000/svg" width="32" height="32" viewBox="0 0 32 32"><defs><style>.uuid-1b825ede-a716-4250-afa7-8bb3c1f359ee{fill:none;}.uuid-d67808fe-a20c-458b-ac6f-b312b35d3e9f{fill:#151515;}</style></defs><g id="uuid-c904534d-5637-4bb1-9a1b-d3431b048bdd"><rect class="uuid-1b825ede-a716-4250-afa7-8bb3c1f359ee" width="32" height="32"/></g><g id="uuid-ff2bbb4b-9831-48d4-824b-18c54644506b"><path class="uuid-d67808fe-a20c-458b-ac6f-b312b35d3e9f" d="M29.5,8h-11.69043l-.68066-3.20801c-.09863-.46191-.50586-.79199-.97852-.79199H6.84961c-.47266,0-.87988.33008-.97852.79199l-.68066,3.20801h-2.69043c-.82715,0-1.5.67285-1.5,1.5v17c0,.82715.67285,1.5,1.5,1.5h27c.82715,0,1.5-.67285,1.5-1.5V9.5c0-.82715-.67285-1.5-1.5-1.5ZM21.44238,19.14941l-3.64648,3.64648c-.21973.21973-.50781.3291-.7959.3291s-.57617-.10938-.7959-.3291c-.43848-.43945-.43848-1.15234,0-1.5918l2.07971-2.0791h-8.28381c-.62109,0-1.125-.50391-1.125-1.125s.50391-1.125,1.125-1.125h8.28381l-2.07971-2.0791c-.43848-.43945-.43848-1.15234,0-1.5918.43945-.43945,1.15234-.43945,1.5918,0l3.64648,3.64648c.63281.63379.63281,1.66504,0,2.29883Z"/></g></svg>

<svg xmlns="http://www.w3.org/2000/svg" viewBox="0 0 32 32">
  <path d="M29.5 8H17.81l-.681-3.208A1 1 0 0 0 16.15 4h-9.3a1 1 0 0 0-.979.792L5.19 8H2.5C1.673 8 1 8.673 1 9.5v17c0 .827.673 1.5 1.5 1.5h27c.827 0 1.5-.673 1.5-1.5v-17c0-.827-.673-1.5-1.5-1.5Zm-8.058 11.149-3.646 3.646c-.22.22-.508.329-.796.329s-.576-.109-.796-.329a1.129 1.129 0 0 1 0-1.592l2.08-2.079H10a1.125 1.125 0 0 1 0-2.25h8.284l-2.08-2.079a1.127 1.127 0 0 1 1.592-1.592l3.646 3.646a1.629 1.629 0 0 1 0 2.299Z"/>
</svg>
